X:6
T: The Past
C: Larry Cusick
M: 6/8
K: D
EGA B2A | EGA BAF | EGA B2c | dBA FED |
EGA B2A | EGA BAF | dBc dfe | dBA FED :|
Bdf e2f | gfe dBA | FAA EAA | FEF AFD |
Bdf e2f | gfe dBA | FEF AFA | BGE E3 :|
